icon-themes/breeze_svg/cmd/lc_matchgroup.svg

<svg viewBox="0 0 24 24" xmlns="http://www.w3.org/2000/svg"><path d="m8 4c-1.76306 0-2.4804688.6966-2.4804688 2.5v2.4375c0 1.1138-.0495774 2.40625-1.0234374 2.40625h-.4960938v1.3125h.4960938c.97388 0 1.0234374 1.29245 1.0234374 2.40625v2.4375c0 1.8034.7174088 2.5 2.4804688 2.5v-1.1875c-1.17537 0-1.1777344-.48615-1.1777344-2.21875v-2c0-.8309-.2183044-2.08105-1.2089844-2.59375.99068-.5127 1.2089844-1.7315 1.2089844-2.5625v-2.03125c0-1.7326.0024444-2.21875 1.1777344-2.21875zm8 0v1.1875c1.16634 0 1.199219.48615 1.199219 2.21875v2.03125c0 .831.186862 2.0498 1.169922 2.5625-.98306.5127-1.169922 1.76285-1.169922 2.59375v2c0 1.7326-.032819 2.21875-1.199219 2.21875v1.1875c1.7495 0 2.492188-.6966 2.492188-2.5v-2.4375c0-1.1138.065844-2.40625 1.015624-2.40625h.492188v-1.3125h-.492188c-.94973 0-1.015624-1.29245-1.015624-2.40625v-2.4375c0-1.8034-.742688-2.5-2.492188-2.5zm-4 5v2h-3v2h3v2l4-3z" fill="#4d4d4d"/></svg>

<svg xmlns="http://www.w3.org/2000/svg" viewBox="0 0 24 24">
 <path 
     style="fill:#4d4d4d" 
     d="M 8 4 C 6.23694 4 5.5195312 4.6966 5.5195312 6.5 L 5.5195312 8.9375 C 5.5195312 10.0513 5.4699538 11.34375 4.4960938 11.34375 L 4 11.34375 L 4 12.65625 L 4.4960938 12.65625 C 5.4699738 12.65625 5.5195312 13.9487 5.5195312 15.0625 L 5.5195312 17.5 C 5.5195312 19.3034 6.23694 20 8 20 L 8 18.8125 C 6.82463 18.8125 6.8222656 18.32635 6.8222656 16.59375 L 6.8222656 14.59375 C 6.8222656 13.76285 6.6039612 12.5127 5.6132812 12 C 6.6039612 11.4873 6.8222656 10.2685 6.8222656 9.4375 L 6.8222656 7.40625 C 6.8222656 5.67365 6.82471 5.1875 8 5.1875 L 8 4 z M 16 4 L 16 5.1875 C 17.16634 5.1875 17.199219 5.67365 17.199219 7.40625 L 17.199219 9.4375 C 17.199219 10.2685 17.386081 11.4873 18.369141 12 C 17.386081 12.5127 17.199219 13.76285 17.199219 14.59375 L 17.199219 16.59375 C 17.199219 18.32635 17.1664 18.8125 16 18.8125 L 16 20 C 17.7495 20 18.492188 19.3034 18.492188 17.5 L 18.492188 15.0625 C 18.492188 13.9487 18.558032 12.65625 19.507812 12.65625 L 20 12.65625 L 20 11.34375 L 19.507812 11.34375 C 18.558082 11.34375 18.492188 10.0513 18.492188 8.9375 L 18.492188 6.5 C 18.492188 4.6966 17.7495 4 16 4 z M 12 9 L 12 11 L 9 11 L 9 13 L 12 13 L 12 15 L 16 12 L 12 9 z "
     />
 </svg>
